!!!OTL: Die beiden Waisenkinder Es waren zwei Waisenkinder,
!!!ARE: Europa, Mitteleuropa, Deutschland (BRD), Rheinland, Viersen
!!!YOR: 5, S. 308
!!    ????
!!!SCT: Q0118
!!!YEM: Copyright 1995, estate of Helmut Schaffrath.
**kern
*ICvox
*Ivox
*M6/8
*k[b-]
*F:
{8f
=1
8a
8a
8a
4a
8a
=2
8b-
8b-
4.r}
{8b-
=3
8b-
8b-
8dd
4cc
8b-
=4
4a
8r}
{4.cc
=5
8a
8a
8a
8a
8b-
8cc
=6
4.dd
8dd
8cc}
{8b-
=7
8a
8a
8cc
4cc
8b-
=8
4.a}
{4.cc
=9
8a
8a
8a
8a
8b-
8cc
=10
4.dd
8dd
8cc}
{8b-
=11
8a
8a
8cc
4cc
8b-
=12
4.a
4r}
==
!!!AGN: Ballade, Waise, boese Stiefmutter, Klage am Grab, Geist
!!!ONB: ESAC (Essen Associative Code) Database: BALLADE
!!!AMT: compound duple
!!!AIN: vox
!!!EED: Helmut Schaffrath
!!!EEV: 1.0
*-
